X: 28
T: Over the Waves
C: 1888 Juventino Rosas (1868-1894)
M: 3/4 %% X:4 WJ 2015
L: 1/4
K: G
|:\
"G"B,3 | (^A, B, D) | G3- | G (F G) |\
(A G F) | (G B, D) | "D"F3- | F3 ||\
C3 | (B, C D) | F3- | F (^E F) |\
(G F ^E) | (F C F) | "G"B,3- | B,3 ||
"G"B,3 | (^A, B, D) | G3- | G (F G) |\
(A G F) | (G B, D) | "C"E3- | E3 ||\
"Am"E3 | (A c e) | "G"d3- | "Em"d (c B) "^I"|\
"A"(A G F) | "D"(E F A) | "G"G3- | G3 :|
|:\
"G"(B ^A B) | (g f e) | g3- | g (f e) |\
(B ^A B) | (e d c) | "D"F3- | F3 ||\
(F ^E F) | (e d c) | e3- | e (d c) |\
(F ^E F) | (c B "#"A) | "G"B3- | B3 ||
"G"(B ^A B) | (g f e) | g3- | g (f e) |\
(B ^A B) | (e d c) | "C"E3- | E3 ||\
"Am"(E ^D E) | (A c e) | "G"d3 | "Em"(d c B) "^I"|\
"A"(A G F) | "D"(E F A) | "G"G3- | G3 :|


